assets/Pot of food/Flat/pot_of_food_flat.svg

<svg width="32" height="32" viewBox="0 0 32 32" fill="none" xmlns="http://www.w3.org/2000/svg">
<path d="M6 13C3.79086 13 2 14.7909 2 17C2 19.2091 3.79086 21 6 21H26C28.2091 21 30 19.2091 30 17C30 14.7909 28.2091 13 26 13H6ZM4 17C4 15.8954 4.89543 15 6 15H10V19H6C4.89543 19 4 18.1046 4 17ZM26 19H22V15H26C27.1046 15 28 15.8954 28 17C28 18.1046 27.1046 19 26 19Z" fill="#B4ACBC"/>
<path d="M7 14H25V21C25 25.9706 20.9706 30 16 30C11.0294 30 7 25.9706 7 21V14Z" fill="#CDC4D6"/>
<path d="M25 14C25 18.9706 20.9706 23 16 23C11.0294 23 7 18.9706 7 14C7 9.02944 11.0294 5 16 5C20.9706 5 25 9.02944 25 14Z" fill="#E1D8EC"/>
<path d="M24 14C24 18.4183 20.4183 22 16 22C11.5817 22 8 18.4183 8 14C8 9.58172 11.5817 6 16 6C20.4183 6 24 9.58172 24 14Z" fill="#FF6723"/>
<path d="M18 18C18 16.8954 18.8954 16 20 16C21.1046 16 22 16.8954 22 18H18Z" fill="#FCD53F"/>
<path d="M11 19C11 18.4477 11.4477 18 12 18C12.5523 18 13 18.4477 13 19H11Z" fill="#FCD53F"/>
<path d="M20 10C18.8954 10 18 10.8954 18 12C18 11.4477 17.5523 11 17 11C16.4477 11 16 11.4477 16 12H18H22C22 10.8954 21.1046 10 20 10Z" fill="#00D26A"/>
<path d="M14 21C14 19.8954 14.8954 19 16 19C17.1046 19 18 19.8954 18 21H14Z" fill="#00D26A"/>
<path d="M15.75 9C15.75 9.41421 15.4142 9.75 15 9.75C14.5858 9.75 14.25 9.41421 14.25 9C14.25 8.58579 14.5858 8.25 15 8.25C15.4142 8.25 15.75 8.58579 15.75 9Z" fill="#990838"/>
<path d="M10.75 16C10.75 16.4142 10.4142 16.75 10 16.75C9.58579 16.75 9.25 16.4142 9.25 16C9.25 15.5858 9.58579 15.25 10 15.25C10.4142 15.25 10.75 15.5858 10.75 16Z" fill="#990838"/>
<path d="M21 14.75C21.4142 14.75 21.75 14.4142 21.75 14C21.75 13.5858 21.4142 13.25 21 13.25C20.5858 13.25 20.25 13.5858 20.25 14C20.25 14.4142 20.5858 14.75 21 14.75Z" fill="#990838"/>
<path d="M12.5613 10.976C13.5278 10.976 14.3113 11.7595 14.3113 12.726C14.3113 13.2754 14.7567 13.7208 15.3061 13.7208C16.2726 13.7208 17.0561 14.5043 17.0561 15.4708C17.0561 16.4373 16.2726 17.2208 15.3061 17.2208C12.8237 17.2208 10.8113 15.2084 10.8113 12.726C10.8113 11.7595 11.5948 10.976 12.5613 10.976Z" fill="#7D4533"/>
</svg>

<svg xmlns="http://www.w3.org/2000/svg" width="32" height="32" fill="none"><path fill="#B4ACBC" d="M6 13a4 4 0 0 0 0 8h20a4 4 0 0 0 0-8H6Zm-2 4a2 2 0 0 1 2-2h4v4H6a2 2 0 0 1-2-2Zm22 2h-4v-4h4a2 2 0 1 1 0 4Z"/><path fill="#CDC4D6" d="M7 14h18v7a9 9 0 1 1-18 0v-7Z"/><path fill="#E1D8EC" d="M25 14a9 9 0 1 1-18 0 9 9 0 0 1 18 0Z"/><path fill="#FF6723" d="M24 14a8 8 0 1 1-16 0 8 8 0 0 1 16 0Z"/><path fill="#FCD53F" d="M18 18a2 2 0 1 1 4 0h-4ZM11 19a1 1 0 1 1 2 0h-2Z"/><path fill="#00D26A" d="M20 10a2 2 0 0 0-2 2 1 1 0 1 0-2 0h6a2 2 0 0 0-2-2ZM14 21a2 2 0 1 1 4 0h-4Z"/><path fill="#990838" d="M15.75 9a.75.75 0 1 1-1.5 0 .75.75 0 0 1 1.5 0ZM10.75 16a.75.75 0 1 1-1.5 0 .75.75 0 0 1 1.5 0ZM21 14.75a.75.75 0 1 0 0-1.5.75.75 0 0 0 0 1.5Z"/><path fill="#7D4533" d="M12.561 10.976c.967 0 1.75.783 1.75 1.75 0 .55.446.995.995.995a1.75 1.75 0 1 1 0 3.5 4.495 4.495 0 0 1-4.495-4.495c0-.967.784-1.75 1.75-1.75Z"/></svg>
